X:1
T:Title
%%score { ( 1 3 ) | 2 }
L:1/8
Q:1/4=100
M:4/4
K:D
V:1 treble nm="Grand Piano"
V:3 treble 
V:2 bass 
V:1
 [FA]>[FA] [=F^G]>[^FA] [=GB]2 [FA]2 | [Ec]>[GB] [FA]>[EG] [DF]4 | %2
w: C.~F.~Green * * * * *||
 [CE]>[DF] [EG]>[FA] [Gc]2 [CGB]2 | [GB]>[FA] [FA]>[=F^G] [^FA]4 | %4
w: ||
 [DF]>[EG] [FA]>[FA] [Fd]2 [FA]2 | [GB]>[GB] [^Ge]>[Gd] c4 | c>c c>c B2 c2 | [Fd]6 z2 | %8
w: ||||
 [FA]>[FA] [DF]>[EG] [FA]2 [Fd]2 | [Ec]6 z2 | [Ge]>[Fd] [Ec]>[GB] [FA]2 [EG]2 | [DF]6 z2 | %12
w: ||||
 F>[EG] [FA]>[GB] [FA]2 [Ad]2 | e>d c>B [FA]4 | c>c c>c B2 [Gc]2 | [Fd]6 z2 |] %16
w: ||||
V:2
 [D,D]>[D,D] [D,D]>[D,D] [D,D]2 [D,A,]2 | [A,,A,]>[A,,A,] [A,,A,]>[A,,A,] [D,A,]4 | %2
 [A,,A,]>[A,,A,] [A,,A,]>[A,,A,] [A,,A,]2 A,,2 | [D,D]>[D,D] [D,D]>[D,D] [D,D]4 | %4
 [D,A,]>[D,A,] [D,D]>[D,D] [D,A,]2 [D,D]2 | [G,D]>[G,B,] [E,B,]>[E,E][K:treble] [A,EA]4 | %6
 [A,EA]>[A,EA] [A,EA]>[A,EA] [A,EG]2 [A,EG]2 | [D,D]6 z2 | %8
 [D,D]>[D,D] [D,A,]>[D,A,] [D,D]2 [D,A,]2 | [A,,A,]2 A,,2 A,,2 z2 | %10
 [A,,A,]>[A,,A,] [A,,A,]>[A,,A,] [A,,A,]2 [A,,A,]2 | [D,A,]2 D,2 D,2 z2 | %12
 [D,A,D]>[D,A,] [D,D]>[D,D] [D,D]2 [F,D]2 | [G,B,G]>[G,B,G] [G,B,G]>[G,DG][K:bass] [D,D]4 | %14
 [A,E]>[A,E] [A,E]>[A,E] [A,G]2 [A,,A,]2 | [D,A,]6 z2 |] %16
V:3
 x8 | x8 | x8 | x8 | x8 | x8 | x8 | x8 | x8 | z2 A,2 A,2 z2 | x8 | z2 A,2 A,2 z2 | x8 | x8 | x8 | %15
 x8 |] %16

